X:141
T:GB/6a/141 It's of an Old Miser in London Did Dwell 
%%VWML:GB-6a-141-0
F:http://www.vwml.org/record/GB/6a/141
C:Transcribed by Simon Furey and Lewis Jones
L:1/4
M:3/4
I:linebreak $
K:C
G | c3/2 G/ A | G C E | F A D | C2 G | A B c |$ d B G | c B A | G2 G | A B c | d B G |$ c3/2 A/ G/>E/ | F !fermata!E G | c B A | G/>E/ C E | F A D | C2 |]

